X: 31449
T: Paddy Taylor's
R: reel
M: 4/4
K: Gmajor
FAA GBB|FAd fed|~c3 ABc|dfe dAG|
FAA GBB|FAd fed|~c3 ABc|dfe d2||

